src/pos-icons/bank-transfer.svg

<svg height="24" viewBox="0 0 24 24" width="24" xmlns="http://www.w3.org/2000/svg"><path d="m15 14v-3h3v-2l4 3.5-4 3.5v-2zm-1-6.3v1.3h-12v-1.3l6-3.7zm-7 2.3h2v5h-2zm-4 0h2v5h-2zm10 0v2.5l-2 1.8v-4.3zm-3.9 6-.6.5 1.7 1.5h-8.2v-2zm7.9-1v3h-3v2l-4-3.5 4-3.5v2z"/></svg>

<?xml version="1.0" encoding="UTF-8"?><!DOCTYPE svg PUBLIC "-//W3C//DTD SVG 1.1//EN" "http://www.w3.org/Graphics/SVG/1.1/DTD/svg11.dtd"><svg xmlns="http://www.w3.org/2000/svg" xmlns:xlink="http://www.w3.org/1999/xlink" version="1.1" id="mdi-bank-transfer" width="24" height="24" viewBox="0 0 24 24"><path d="M15,14V11H18V9L22,12.5L18,16V14H15M14,7.7V9H2V7.7L8,4L14,7.7M7,10H9V15H7V10M3,10H5V15H3V10M13,10V12.5L11,14.3V10H13M9.1,16L8.5,16.5L10.2,18H2V16H9.1M17,15V18H14V20L10,16.5L14,13V15H17Z" /></svg>
